public/static/images/components/box/main/main.svg

<?xml version="1.0" encoding="utf-8"?>
<!-- Generator: Adobe Illustrator 26.0.0, SVG Export Plug-In . SVG Version: 6.00 Build 0)  -->
<svg version="1.1" id="Capa_1" xmlns="http://www.w3.org/2000/svg" xmlns:xlink="http://www.w3.org/1999/xlink" x="0px" y="0px"
	 viewBox="0 0 1168 430" style="enable-background:new 0 0 1168 430;" xml:space="preserve">
<style type="text/css">
	.st0{fill:#292D32;fill-opacity:0.4;}
</style>
<path class="st0" d="M1103.9,12.4l58.3,58.3c3.8,3.8,5.9,8.8,5.9,14.1v225.4c0,5.3-2.1,10.4-5.9,14.1l-99.3,99.3
	c-3.8,3.8-8.8,5.9-14.1,5.9h-91.4c-5.3,0-10.4-2.1-14.1-5.9l-6.3-6.3c-3.8-3.8-8.8-5.9-14.1-5.9H720.8c-5.3,0-10.4-2.1-14.1-5.9
	l-19.8-19.8c-3.8-3.8-8.8-5.9-14.1-5.9H465.8c-5.3,0-10.4,2.1-14.1,5.9l-12.3,12.3c-3.8,3.8-8.8,5.9-14.1,5.9H190.3
	c-5.3,0-10.4-2.1-14.1-5.9l-12.3-12.3c-3.8-3.8-8.8-5.9-14.1-5.9H56.3c-5.3,0-10.4-2.1-14.1-5.9L5.9,337.9C2.1,334.1,0,329,0,323.7
	V69.8c0-5.3,2.1-10.4,5.9-14.1L55.6,5.9C59.4,2.1,64.5,0,69.8,0h221.4c5.3,0,10.4,2.1,14.1,5.9l19.3,19.3c3.8,3.8,8.8,5.9,14.1,5.9
	h261.4c5.3,0,10.4-2.1,14.1-5.9l12.8-12.8c3.8-3.8,8.8-5.9,14.1-5.9h448.4C1095,6.5,1100.1,8.6,1103.9,12.4z"/>
</svg>

<svg width="1168" height="430" viewBox="0 0 1168 430" fill="none" xmlns="http://www.w3.org/2000/svg">
<path d="M1103.9 12.4L1162.2 70.7C1166 74.5 1168.1 79.5 1168.1 84.8V310.2C1168.1 315.5 1168.1 319 1168.1 326V410.5L1157 419L1144.5 429.5C1139.5 429.5 1054.1 429.5 1048.8 429.5H957.4C952.1 429.5 947 427.4 943.3 423.6L937 417.3C933.2 413.5 928.2 411.4 922.9 411.4H720.8C715.5 411.4 710.4 409.3 706.7 405.5L686.9 385.7C683.1 381.9 678.1 379.8 672.8 379.8H465.8C460.5 379.8 455.4 381.9 451.7 385.7L439.4 398C435.6 401.8 430.6 403.9 425.3 403.9H190.3C185 403.9 179.9 401.8 176.2 398L163.9 385.7C160.1 381.9 155.1 379.8 149.8 379.8H56.3C51 379.8 45.9 377.7 42.2 373.9L5.9 337.9C2.1 334.1 0 329 0 323.7V69.8C0 64.5 2.1 59.4 5.9 55.7L55.6 5.9C59.4 2.1 64.5 0 69.8 0H291.2C296.5 0 301.6 2.1 305.3 5.9L324.6 25.2C328.4 29 333.4 31.1 338.7 31.1H600.1C605.4 31.1 610.5 29 614.2 25.2L627 12.4C630.8 8.6 635.8 6.5 641.1 6.5H1089.5C1095 6.5 1100.1 8.6 1103.9 12.4Z" fill="#292D32" fill-opacity="0.4"/>
</svg>
